X: 981
T: Havada Turna Sesi Var
C: (Anonim)
O: Turkey
F: http://compmusic.upf.edu/node/140
N: evic--turku--aksak--havada_turna--istanbul
N: makam= evic
N: form= turku
N: usul= aksak = 9/8
M: 9/8
L: 1/16
K: C _1/4B ^f ^c 
Q: 1/4=240
%%MIDI tuningsystem comma53
d4 d4 d2c2 {e}d4 z2 | c2 d2e2 e2d2 c2B4d2  | \
w:  ARANAĞME  |   | 
c6B2 d2c2 cBc2 z2 | 
w:   | 
d2 d6dc de=c2 B2A2  | A2A4B2 A2G2 {A}G4 F2 | F18  | \
w:   |   |   | 
d4 d4 d2c2 {e}d4 z2 | 
w:  ARANAĞME  | 
c2 d2e2 e2d2 c2B4d2  | c6B2 d2c2 cBc2 z2 | \
w:   |   | 
d2 d6dc de=c2 B2A2  | 
w:   | 
A2A4B2 A2G2 {A}G4 F2 | F18  | f2f6 f3^e f6 | \
w:   |   |  Ha va da   | 
f4f2 g2f2 ^e2d4=e2  | e6d2 g2f2 f^ef2 z2 | 
w:  tur na  *  se *  si   |  var  *  ca *  nım    | 
f2 f6f3^ef6  | f4 f2g2 f2^e2 d4 =e2 | \
w:  Ha va da   |  tur na  *  se *  si   | 
e6 d2g2 f2f^e f2z2  | d4 d4 d3c d6 | 
w:  var  *  ca *  nım    |  Yâ ri min   | 
c2 d2e4d2 c2B4d2  | c7B dcd2 c4 z2 | \
w:  fi *  nor  fe *  si   |  var  *  ca *  *  nım    | 
d4d4d3e=c2 B2A2  | 
w:  Yâ ri min   | 
A2A4B2 A2G2 G4 F2 | F18  | f2f6 f3^e f6 | \
w:  fi nor  *  fe *  si   |  var    |  Sa lı nıp   | 
f4f2 g2f2 ^e2d4=e2  | d4 e4 d4 g4 f2 | 
w:  gez me *  ye   |  çok  he ve si   | 
f3gf2 ^e2d2 e2f6  | f2f6 f3^e f6 | f4f2 g2f2 ^e2d4=e2  | \
w:  var  *  *  *  ca *  nım    |  Sa lı nıp   |  gez me *  ye   | 
d4 e4 d4 g4 f2 | 
w:  çok  he ve si   | 
f3gf2 ^e2d2 e2f6  | d4 d4 d2c2 {e}d4 z2 | \
w:  var  *  *  *  ca *  nım    |  Sen  kal dır   | 
c2 d2e2 e2d2 c2B4d2  | 
w:  çı tı  pı tı  kol *  la  | 
c6B2 d2c2 cBc2 z2 | d2 d6dc de=c2 B2A2  | \
w:  rın  *  ca *  nım    |  Me ze  ver  | 
A2A4B2 A2G2 {A}G4 F2 | 
w:  mi yor  *  el *  *  le  | 
F18  | d4 d4 d2c2 {e}d4 z2 | c2 d2e2 e2d2 c2B4d2  | \
w:  ri    |  Sen  kal dır   |  çı tı  pı tı  kol *  la  | 
c6B2 d2c2 cBc2 z2 | 
w:  rın  *  ca *  nım    | 
d2 d6dc de=c2 B2A2  | A2A4B2 A2G2 {A}G4 F2 | F18  | \
w:  Me ze  ver  |  mi yor  *  el *  *  le  |  ri    | 
d4 d4 d2c2 {e}d4 z2 | 
w:  ARANAĞME  | 
c2 d2e2 e2d2 c2B4d2  | c6B2 d2c2 cBc2 z2 | \
w:   |   | 
d2 d6dc de=c2 B2A2  | 
w:   | 
A2A4B2 A2G2 {A}G4 F2 | F18  | d4 d4 d2c2 {e}d4 z2 | \
w:   |   |  ARANAĞME  | 
c2 d2e2 e2d2 c2B4d2  | 
w:   | 
c6B2 d2c2 cBc2 z2 | d2 d6dc de=c2 B2A2  | \
w:   |   | 
A2A4B2 A2G2 {A}G4 F2 | 
w:   | 
F18  | f2f6 f3^e f6 | f4f2 g2f2 ^e2d4=e2  | \
w:   |  Ka vak  ka  |  vak tan_ *  u *  zun  | 
e6d2 g2f2 f^ef2 z2 | 
w:  dur  *  ca *  nım    | 
f2 f6f3^ef6  | f4 f2g2 f2^e2 d4 =e2 | \
w:  Ka vak  ka  |  vak tan_ *  u *  zun  | 
e6 d2g2 f2f^e f2z2  | d4 d4 d3c d6 | 
w:  dur  *  ca *  nım    |  As ma da   | 
c2 d2e4d2 c2B4d2  | c7B dcd2 c4 z2 | \
w:  bi ten  *  ü *  züm  |  dür  *  ca *  *  nım    | 
d4d4d3e=c2 B2A2  | 
w:  As ma da   | 
A2A4B2 A2G2 G4 F2 | F18  | f4 f4 f2^e2 f4 z2 | \
w:  bi ten  *  ü *  züm  |  dür    |  Yâr  be nim   | 
f2 f4 g2f2 ^e2d4=e2  | 
w:  i ki  *  gö *  züm  | 
e6d2 g2f2 f^ef2 z2 | f4f4f2 ^e2f4z2  | \
w:  dür  *  ca *  nım    |  Yâr  be nim   | 
f2f4g2 f2^e2 d4 =e2 | 
w:  i ki  *  gö *  züm  | 
e6 d2g2 f2f^e f2z2  | d4 d4 d2c2 {e}d4 z2 | \
w:  dür  *  ca *  nım    |  Sen  kal dır   | 
c2 d2e2 e2d2 c2B4d2  | 
w:  çı tı  pı tı  kol *  la  | 
c6B2 d2c2 cBc2 z2 | d2 d6dc de=c2 B2A2  | \
w:  rın  *  ca *  nım    |  Me ze  ver  | 
A2A4B2 A2G2 {A}G4 F2 | 
w:  mi yor  *  el *  *  le  | 
F18  | d4 d4 d2c2 {e}d4 z2 | c2 d2e2 e2d2 c2B4d2  | \
w:  ri    |  Sen  kal dır   |  çı tı  pı tı  kol *  la  | 
c6B2 d2c2 cBc2 z2 | 
w:  rın  *  ca *  nım    | 
d2 d6dc de=c2 B2A2  | A2A4B2 A2G2 {A}G4 F2 | F18  | |


